X: 8556
T: Crisps On The Drive
R: jig
M: 6/8
K: Aminor
|:E2A AGA|~c3 cAG|EAA AGA|~d3 dAG|
EAA AGA|efe edc|dcA cAG|ABA A2G:|
|:Add dcd|efe edc|ABA AGA|~c3 cAG|
Add dcd|efe edc|dcA cAG|ABA A2G:|

